X:240
T: Lucy Farr's Barn Dance
M: 4/4
L: 1/8
R:barn dance
K: G
|: (3DEF |G2 G2 G2 G2|GABG ~E2 D2|B4 B4|BddB A3 A|
|BcdB G2 G2|GABG ~E2 D2|DEGA BddB|~A2 G2 G2 :|
z2 |BcdB G2 G2|GABG ~E2 D2|DEGA B2dB|~B2 A2 A3 A|
|BcdB G2 G2|GABG ~E2 D2|DEGA BddB|~A2 G2 G2 :|
